reflection-app/data/resources/icons/scalable/status/folder-symbolic.svg

<?xml version="1.0" encoding="UTF-8"?>
<svg height="16px" viewBox="0 0 16 16" width="16px" xmlns="http://www.w3.org/2000/svg">
    <g fill="#2e3436">
        <path d="m 1 4 v 1 h 8 v -1 z m 0 0"/>
        <path d="m 3 1 c -1.644531 0 -3 1.355469 -3 3 v 8 c 0 1.644531 1.355469 3 3 3 h 10 c 1.644531 0 3 -1.355469 3 -3 v -6 c 0 -1.644531 -1.355469 -3 -3 -3 h -3.585938 l -1.707031 -1.707031 c -0.1875 -0.1875 -0.441406 -0.292969 -0.707031 -0.292969 z m 0 2 h 3.585938 l 1.707031 1.707031 c 0.1875 0.1875 0.441406 0.292969 0.707031 0.292969 h 4 c 0.5625 0 1 0.4375 1 1 v 6 c 0 0.566406 -0.4375 1 -1 1 h -10 c -0.5625 0 -1 -0.433594 -1 -1 v -8 c 0 -0.5625 0.4375 -1 1 -1 z m 0 0"/>
    </g>
</svg>

<svg xmlns="http://www.w3.org/2000/svg" width="16" height="16" viewBox="0 0 16 16"><g fill="#2e3436"><path d="M1 4v1h8V4zm0 0"/><path d="M3 1C1.355 1 0 2.355 0 4v8c0 1.645 1.355 3 3 3h10c1.645 0 3-1.355 3-3V6c0-1.645-1.355-3-3-3H9.414L7.707 1.293A1 1 0 0 0 7 1zm0 2h3.586l1.707 1.707A1 1 0 0 0 9 5h4c.563 0 1 .438 1 1v6c0 .566-.437 1-1 1H3c-.562 0-1-.434-1-1V4c0-.562.438-1 1-1m0 0"/></g></svg>
